design-system/icons/check_box_outline_blank--labs-icons.svg

<svg width="22" height="20" viewBox="0 0 22 20" fill="none" xmlns="http://www.w3.org/2000/svg">
<mask id="mask0_306_77" style="mask-type:alpha" maskUnits="userSpaceOnUse" x="0" y="0" width="22" height="22">
<rect x="0.5" width="21.0833" height="21.0833" fill="#D9D9D9"/>
</mask>
<g mask="url(#mask0_306_77)">
<path d="M4.8924 19.0189C4.25215 19.0189 3.70412 18.791 3.24834 18.335C2.79242 17.8793 2.56445 17.3312 2.56445 16.691V4.39236C2.56445 3.75225 2.79242 3.20423 3.24834 2.7483C3.70412 2.29237 4.25215 2.06441 4.8924 2.06441H17.191C17.8311 2.06441 18.3792 2.29237 18.8351 2.7483C19.291 3.20423 19.519 3.75225 19.519 4.39236V16.691C19.519 17.3312 19.291 17.8793 18.8351 18.335C18.3792 18.791 17.8311 19.0189 17.191 19.0189H4.8924ZM4.8924 16.691H17.191V4.39236H4.8924V16.691Z" fill="#1C1B1F"/>
</g>
</svg>

<svg xmlns="http://www.w3.org/2000/svg" width="22" height="20" fill="none" viewBox="0 0 22 20"><mask id="a" width="22" height="22" x="0" y="0" maskUnits="userSpaceOnUse" style="mask-type:alpha"><path fill="#d9d9d9" d="M.5 0h21.083v21.083H.5z"/></mask><g mask="url(#a)"><path fill="#1c1b1f" d="M4.892 19.019a2.24 2.24 0 0 1-1.644-.684 2.24 2.24 0 0 1-.684-1.644V4.392q0-.96.684-1.644a2.24 2.24 0 0 1 1.644-.684h12.299q.96 0 1.644.684t.684 1.644v12.299q0 .96-.684 1.644a2.24 2.24 0 0 1-1.644.684zm0-2.328h12.299V4.392H4.892z"/></g></svg>
